X:20
T:Orange and Blue
Z:Jack Campin, 2006, http://www.campin.me.uk/
M:C
L:1/8
Q:1/4=120
K:D
fda>f d2d>f|g<ee2  B<ee2 |c>A   e>c A2a>g|
fda>f d2f>a|b>ga>f g>ef>d|e>c (3ABc d4  ||
f<aa2 f<aa2|f>da>f d2d>f|ge   b>g e2e>g|
f<aa2 f<aa2|f>da>f d2f>a|b>ga>f g>ef>d|e>c (3ABc d3e |]
% Reels
% -----
